X:1
T:Chorleywood, 86.86.88
T:Chorleywood, 86.86.88
T:Livesey Kennington R. Carrott (1864-1900)
T:Public Domain Courtesy of the Cyber Hymnal™
C:Livesey Kennington R. Carrott (1864-1900)
Z:Public Domain
Z:Courtesy of the Cyber Hymnal™
%%score ( 1 2 ) ( 3 4 )
L:1/8
Q:1/4=100
M:6/8
K:E
V:1 treble 
V:2 treble 
V:3 bass 
V:4 bass 
V:1
 E | [EG]2 [EG] (BA)[EG] | [DF]2 [DG] E2 [FB] | [Ee]2 [Ee] (ed)[Fc] | B3- [FB]2 [FA] | %5
 [EG]2 [EG] (BA)[EG] | [DF]2 [DG] [CE]2 [^B,D] | (CE)[EA] [DG]2 [DF] | E3- E2 E | %9
 (FG)[DA] [EG]2 [EG] | (^AB)[Ec] [DB]2 [EB] | (cd)[Ee] [EB]2 [EG] | (FG)[DF] E2 |] %13
V:2
 E | x3 F2 x | x3 E2 x | x3 F2 x | D2 E x3 | x3 F2 x | x6 | C2 x4 | E3- E2 E | B,2 x4 | E2 x4 | %11
 E2 x4 | C2 E2 x |] %13
V:3
 [E,G,] | [E,B,]2 [E,B,] [D,B,]2 [E,B,] | [B,,B,]2 [B,,A,] [E,G,]2 [D,F,] | %3
 [C,G,]2 [C,G,] [F,^A,]2 [F,A,] | B,3- [D,B,]2 [D,B,] | [E,B,]2 [E,B,] [D,B,]2 [E,B,] | %6
 [B,,B,]2 [^B,,G,] [C,G,]2 [G,,F,] | [A,,E,]2 [F,,C] [B,,B,]2 [B,,A,] | [E,G,]3- [E,G,]2 [E,G,] | %9
 [D,B,]2 [B,,B,] [E,B,]2 [D,B,] | [C,C]2 [F,^A,] [B,,B,]2 [G,B,] | A,2 [A,,C] [B,,G,]2 [B,,B,] | %12
 [B,,^A,]2 [B,,=A,] [E,G,]2 |] %13
V:4
 x | x6 | x6 | x6 | B,,2 C, x3 | x6 | x6 | x6 | x6 | x6 | x6 | A,2 x4 | x5 |] %13

